src/icons/train-active.svg

<svg width="17" height="20" viewBox="0 0 17 20" fill="none" xmlns="http://www.w3.org/2000/svg">
<path d="M3.65306 0H12.7182C13.4878 0.016421 14.2223 0.325232 14.7724 0.86368C15.3225 1.40213 15.6469 2.12981 15.6798 2.89887L16.3724 13.3512C16.3848 13.7462 16.3172 14.1396 16.1737 14.5078C16.0302 14.876 15.8137 15.2113 15.5373 15.4938C15.2609 15.7762 14.9302 15.9998 14.5652 16.1512C14.2002 16.3025 13.8083 16.3786 13.4132 16.3747H12.4682L14.5461 19.9638H13.1609L12.4048 18.7008H3.90457L3.21195 19.9599H1.8275L3.90457 16.3747C3.52558 16.3852 3.14636 16.3643 2.77084 16.312C2.0151 16.2733 1.30389 15.9428 0.787076 15.39C0.270265 14.8373 -0.0117793 14.1055 0.000377264 13.3489L0.692993 2.89887C0.725851 2.13008 1.05009 1.40261 1.59987 0.864206C2.14964 0.325799 2.88373 0.0168138 3.65306 0V0ZM15.0499 11.7114L14.6722 5.35194H1.70058L1.32293 11.7114H15.0499ZM2.51934 14.0415C2.52646 14.3065 2.6349 14.5586 2.82234 14.7461C3.00978 14.9335 3.26194 15.0419 3.52692 15.049C3.78829 15.0313 4.03438 14.9194 4.21963 14.7342C4.40487 14.5489 4.51673 14.3029 4.5345 14.0415C4.52738 13.7765 4.41894 13.5244 4.2315 13.3369C4.04407 13.1495 3.7919 13.0411 3.52692 13.0339C3.39411 13.0321 3.26228 13.057 3.13923 13.107C3.01617 13.157 2.90438 13.2311 2.81046 13.3251C2.71654 13.419 2.64239 13.5308 2.59239 13.6538C2.54238 13.7769 2.51755 13.9087 2.51934 14.0415ZM12.8459 13.0339C12.7131 13.0321 12.5813 13.057 12.4582 13.107C12.3351 13.157 12.2234 13.2311 12.1294 13.3251C12.0355 13.419 11.9614 13.5308 11.9114 13.6538C11.8614 13.7769 11.8365 13.9087 11.8383 14.0415C11.8383 14.1738 11.8644 14.3048 11.915 14.4271C11.9656 14.5493 12.0399 14.6604 12.1334 14.7539C12.227 14.8475 12.3381 14.9217 12.4603 14.9723C12.5826 15.023 12.7136 15.049 12.8459 15.049C12.9782 15.049 13.1092 15.023 13.2315 14.9723C13.3537 14.9217 13.4648 14.8475 13.5584 14.7539C13.6519 14.6604 13.7261 14.5493 13.7768 14.4271C13.8274 14.3048 13.8535 14.1738 13.8535 14.0415C13.8553 13.9087 13.8304 13.7769 13.7804 13.6538C13.7304 13.5308 13.6563 13.419 13.5624 13.3251C13.4684 13.2311 13.3566 13.157 13.2336 13.107C13.1105 13.057 12.9787 13.0321 12.8459 13.0339ZM5.22712 2.20392C5.07495 2.21347 4.93213 2.28064 4.82775 2.39177C4.72336 2.50291 4.66526 2.64964 4.66526 2.80211C4.66526 2.95457 4.72336 3.10131 4.82775 3.21244C4.93213 3.32358 5.07495 3.39075 5.22712 3.40029H11.083C11.1634 3.4032 11.2435 3.38988 11.3187 3.36113C11.3938 3.33238 11.4623 3.28879 11.5202 3.23295C11.5781 3.17712 11.6242 3.11019 11.6556 3.03617C11.6871 2.96214 11.7033 2.88254 11.7033 2.80211C11.7033 2.72168 11.6871 2.64208 11.6556 2.56805C11.6242 2.49403 11.5781 2.4271 11.5202 2.37126C11.4623 2.31543 11.3938 2.27184 11.3187 2.24308C11.2435 2.21433 11.1634 2.20101 11.083 2.20392H5.22712ZM11.083 16.3747H5.2898L4.59719 17.5084H11.778L11.083 16.3747Z" fill="#4D844F"/>
</svg>

<svg xmlns="http://www.w3.org/2000/svg" width="17" height="20" fill="none"><path fill="#4D844F" d="M3.7 0h9a3 3 0 0 1 3 2.9l.7 10.5a3 3 0 0 1-3 3h-1l2.1 3.6h-1.3l-.8-1.3H3.9L3.2 20H1.8L4 16.4H2.8a3 3 0 0 1-2.8-3L.7 2.8a3 3 0 0 1 3-2.9zM15 11.7l-.3-6.3h-13l-.4 6.3H15zM2.5 14a1 1 0 0 0 1 1 1 1 0 0 0 1-1 1 1 0 0 0-1-1 1 1 0 0 0-1 1zm10.3-1a1 1 0 0 0-1 1 1 1 0 1 0 1-1zM5.2 2.2a.6.6 0 0 0 0 1.2h5.9a.6.6 0 1 0 0-1.2H5.2zm5.9 14.2H5.3l-.7 1.1h7.2l-.7-1.1z"/></svg>
